images/6605070.svg

<?xml version="1.0" encoding="UTF-8"?>
<svg xmlns="http://www.w3.org/2000/svg" xmlns:xlink="http://www.w3.org/1999/xlink" width="300pt" height="300pt" viewBox="0 0 300 300" version="1.1">
<defs>
<g>
<symbol overflow="visible" id="glyph0-0">
<path style="stroke:none;" d="M 0.453125 1.59375 L 0.453125 -6.34375 L 4.953125 -6.34375 L 4.953125 1.59375 Z M 0.953125 1.09375 L 4.453125 1.09375 L 4.453125 -5.84375 L 0.953125 -5.84375 Z M 0.953125 1.09375 "/>
</symbol>
<symbol overflow="visible" id="glyph0-1">
<path style="stroke:none;" d="M 0.890625 -6.5625 L 2.078125 -6.5625 L 4.984375 -1.078125 L 4.984375 -6.5625 L 5.84375 -6.5625 L 5.84375 0 L 4.65625 0 L 1.75 -5.484375 L 1.75 0 L 0.890625 0 Z M 0.890625 -6.5625 "/>
</symbol>
<symbol overflow="visible" id="glyph0-2">
<path style="stroke:none;" d="M 0.890625 -6.5625 L 1.765625 -6.5625 L 1.765625 -3.875 L 5 -3.875 L 5 -6.5625 L 5.890625 -6.5625 L 5.890625 0 L 5 0 L 5 -3.125 L 1.765625 -3.125 L 1.765625 0 L 0.890625 0 Z M 0.890625 -6.5625 "/>
</symbol>
<symbol overflow="visible" id="glyph0-3">
<path style="stroke:none;" d="M 0.890625 -6.5625 L 4.65625 -6.5625 L 4.65625 -5.8125 L 1.765625 -5.8125 L 1.765625 -3.875 L 4.375 -3.875 L 4.375 -3.140625 L 1.765625 -3.140625 L 1.765625 0 L 0.890625 0 Z M 0.890625 -6.5625 "/>
</symbol>
</g>
</defs>
<g id="surface33777">
<rect x="0" y="0" width="300" height="300" style="fill:rgb(100%,100%,100%);fill-opacity:1;stroke:none;"/>
<path style="fill:none;stroke-width:1.2;stroke-linecap:butt;stroke-linejoin:miter;stroke:rgb(0%,0%,0%);stroke-opacity:1;stroke-miterlimit:10;" d="M 40.429688 129.417969 L 56.964844 138.96875 "/>
<path style="fill:none;stroke-width:1.2;stroke-linecap:butt;stroke-linejoin:miter;stroke:rgb(0%,0%,0%);stroke-opacity:1;stroke-miterlimit:10;" d="M 56.964844 138.96875 L 73.503906 129.425781 "/>
<path style="fill:none;stroke-width:1.2;stroke-linecap:butt;stroke-linejoin:miter;stroke:rgb(0%,0%,0%);stroke-opacity:1;stroke-miterlimit:10;" d="M 73.503906 129.425781 L 81.769531 134.203125 "/>
<path style="fill:none;stroke-width:1.2;stroke-linecap:butt;stroke-linejoin:miter;stroke:rgb(0%,0%,100%);stroke-opacity:1;stroke-miterlimit:10;" d="M 81.769531 134.203125 L 90.039062 138.980469 "/>
<path style="fill:none;stroke-width:1.2;stroke-linecap:butt;stroke-linejoin:miter;stroke:rgb(0%,0%,100%);stroke-opacity:1;stroke-miterlimit:10;" d="M 90.039062 138.980469 L 98.761719 135.097656 "/>
<path style="fill:none;stroke-width:1.2;stroke-linecap:butt;stroke-linejoin:miter;stroke:rgb(0%,0%,0%);stroke-opacity:1;stroke-miterlimit:10;" d="M 98.761719 135.097656 L 107.484375 131.21875 "/>
<path style="fill:none;stroke-width:1.2;stroke-linecap:butt;stroke-linejoin:miter;stroke:rgb(0%,0%,0%);stroke-opacity:1;stroke-miterlimit:10;" d="M 92.027344 157.972656 L 91.035156 148.476562 "/>
<path style="fill:none;stroke-width:1.2;stroke-linecap:butt;stroke-linejoin:miter;stroke:rgb(0%,0%,100%);stroke-opacity:1;stroke-miterlimit:10;" d="M 91.035156 148.476562 L 90.039062 138.980469 "/>
<path style=" stroke:none;fill-rule:nonzero;fill:rgb(100%,100%,100%);fill-opacity:1;" d="M 87.039062 133.480469 L 94.039062 133.480469 L 94.039062 144.480469 L 87.039062 144.480469 Z M 87.039062 133.480469 "/>
<g style="fill:rgb(0%,0%,100%);fill-opacity:1;">
  <use xlink:href="#glyph0-1" x="87.039062" y="142.143555"/>
</g>
<path style="fill:none;stroke-width:1.2;stroke-linecap:butt;stroke-linejoin:miter;stroke:rgb(0%,0%,0%);stroke-opacity:1;stroke-miterlimit:10;" d="M 107.484375 131.21875 L 120.257812 145.414062 "/>
<path style="fill:none;stroke-width:1.2;stroke-linecap:butt;stroke-linejoin:miter;stroke:rgb(0%,0%,0%);stroke-opacity:1;stroke-miterlimit:10;" d="M 112.101562 129.632812 L 122.320312 140.988281 "/>
<path style="fill:none;stroke-width:1.2;stroke-linecap:butt;stroke-linejoin:miter;stroke:rgb(0%,0%,100%);stroke-opacity:1;stroke-miterlimit:10;" d="M 113.390625 113.058594 L 110.4375 122.136719 "/>
<path style="fill:none;stroke-width:1.2;stroke-linecap:butt;stroke-linejoin:miter;stroke:rgb(0%,0%,0%);stroke-opacity:1;stroke-miterlimit:10;" d="M 110.4375 122.136719 L 107.484375 131.21875 "/>
<path style="fill:none;stroke-width:1.2;stroke-linecap:butt;stroke-linejoin:miter;stroke:rgb(0%,0%,0%);stroke-opacity:1;stroke-miterlimit:10;" d="M 120.257812 145.414062 L 138.9375 141.449219 "/>
<path style="fill:none;stroke-width:1.2;stroke-linecap:butt;stroke-linejoin:miter;stroke:rgb(0%,0%,0%);stroke-opacity:1;stroke-miterlimit:10;" d="M 120.257812 145.414062 L 115.480469 153.679688 "/>
<path style="fill:none;stroke-width:1.2;stroke-linecap:butt;stroke-linejoin:miter;stroke:rgb(0%,0%,100%);stroke-opacity:1;stroke-miterlimit:10;" d="M 115.480469 153.679688 L 110.707031 161.949219 "/>
<path style="fill:none;stroke-width:1.2;stroke-linecap:butt;stroke-linejoin:miter;stroke:rgb(0%,0%,0%);stroke-opacity:1;stroke-miterlimit:10;" d="M 138.9375 141.449219 L 141.890625 132.367188 "/>
<path style="fill:none;stroke-width:1.2;stroke-linecap:butt;stroke-linejoin:miter;stroke:rgb(0%,0%,100%);stroke-opacity:1;stroke-miterlimit:10;" d="M 141.890625 132.367188 L 144.84375 123.289062 "/>
<path style="fill:none;stroke-width:1.2;stroke-linecap:butt;stroke-linejoin:miter;stroke:rgb(0%,0%,0%);stroke-opacity:1;stroke-miterlimit:10;" d="M 135.257812 138.242188 L 137.617188 130.980469 "/>
<path style="fill:none;stroke-width:1.2;stroke-linecap:butt;stroke-linejoin:miter;stroke:rgb(0%,0%,100%);stroke-opacity:1;stroke-miterlimit:10;" d="M 137.617188 130.980469 L 139.980469 123.714844 "/>
<path style="fill:none;stroke-width:1.2;stroke-linecap:butt;stroke-linejoin:miter;stroke:rgb(0%,0%,0%);stroke-opacity:1;stroke-miterlimit:10;" d="M 138.9375 141.449219 L 145.324219 148.546875 "/>
<path style="fill:none;stroke-width:1.2;stroke-linecap:butt;stroke-linejoin:miter;stroke:rgb(0%,0%,100%);stroke-opacity:1;stroke-miterlimit:10;" d="M 145.324219 148.546875 L 151.710938 155.644531 "/>
<path style="fill:none;stroke-width:1.2;stroke-linecap:butt;stroke-linejoin:miter;stroke:rgb(0%,0%,100%);stroke-opacity:1;stroke-miterlimit:10;" d="M 144.84375 123.289062 L 138.457031 116.191406 "/>
<path style="fill:none;stroke-width:1.2;stroke-linecap:butt;stroke-linejoin:miter;stroke:rgb(0%,0%,0%);stroke-opacity:1;stroke-miterlimit:10;" d="M 138.457031 116.191406 L 132.070312 109.09375 "/>
<path style=" stroke:none;fill-rule:nonzero;fill:rgb(100%,100%,100%);fill-opacity:1;" d="M 141.84375 117.789062 L 148.84375 117.789062 L 148.84375 128.789062 L 141.84375 128.789062 Z M 141.84375 117.789062 "/>
<g style="fill:rgb(0%,0%,100%);fill-opacity:1;">
  <use xlink:href="#glyph0-1" x="141.84375" y="126.452148"/>
</g>
<path style="fill:none;stroke-width:1.2;stroke-linecap:butt;stroke-linejoin:miter;stroke:rgb(0%,0%,0%);stroke-opacity:1;stroke-miterlimit:10;" d="M 132.070312 109.09375 L 122.730469 111.078125 "/>
<path style="fill:none;stroke-width:1.2;stroke-linecap:butt;stroke-linejoin:miter;stroke:rgb(0%,0%,100%);stroke-opacity:1;stroke-miterlimit:10;" d="M 122.730469 111.078125 L 113.390625 113.058594 "/>
<path style="fill:none;stroke-width:1.2;stroke-linecap:butt;stroke-linejoin:miter;stroke:rgb(0%,0%,0%);stroke-opacity:1;stroke-miterlimit:10;" d="M 131.136719 113.886719 L 123.664062 115.472656 "/>
<path style="fill:none;stroke-width:1.2;stroke-linecap:butt;stroke-linejoin:miter;stroke:rgb(0%,0%,100%);stroke-opacity:1;stroke-miterlimit:10;" d="M 123.664062 115.472656 L 116.191406 117.058594 "/>
<path style="fill:none;stroke-width:1.2;stroke-linecap:butt;stroke-linejoin:miter;stroke:rgb(0%,0%,0%);stroke-opacity:1;stroke-miterlimit:10;" d="M 132.070312 109.09375 L 137.976562 90.933594 "/>
<path style=" stroke:none;fill-rule:nonzero;fill:rgb(100%,100%,100%);fill-opacity:1;" d="M 110.390625 107.558594 L 117.390625 107.558594 L 117.390625 118.558594 L 110.390625 118.558594 Z M 110.390625 107.558594 "/>
<g style="fill:rgb(0%,0%,100%);fill-opacity:1;">
  <use xlink:href="#glyph0-1" x="110.390625" y="116.22168"/>
</g>
<path style="fill:none;stroke-width:1.2;stroke-linecap:butt;stroke-linejoin:miter;stroke:rgb(0%,0%,100%);stroke-opacity:1;stroke-miterlimit:10;" d="M 151.710938 155.644531 L 161.050781 153.660156 "/>
<path style="fill:none;stroke-width:1.2;stroke-linecap:butt;stroke-linejoin:miter;stroke:rgb(0%,0%,0%);stroke-opacity:1;stroke-miterlimit:10;" d="M 161.050781 153.660156 L 170.390625 151.679688 "/>
<path style=" stroke:none;fill-rule:nonzero;fill:rgb(100%,100%,100%);fill-opacity:1;" d="M 144.710938 150.144531 L 158.710938 150.144531 L 158.710938 161.144531 L 144.710938 161.144531 Z M 144.710938 150.144531 "/>
<g style="fill:rgb(0%,0%,100%);fill-opacity:1;">
  <use xlink:href="#glyph0-1" x="144.710938" y="158.807617"/>
  <use xlink:href="#glyph0-2" x="151.688477" y="158.807617"/>
</g>
<path style="fill:none;stroke-width:1.2;stroke-linecap:butt;stroke-linejoin:miter;stroke:rgb(0%,0%,0%);stroke-opacity:1;stroke-miterlimit:10;" d="M 170.390625 151.679688 L 183.164062 165.871094 "/>
<path style="fill:none;stroke-width:1.2;stroke-linecap:butt;stroke-linejoin:miter;stroke:rgb(0%,0%,0%);stroke-opacity:1;stroke-miterlimit:10;" d="M 183.164062 165.871094 L 201.84375 161.90625 "/>
<path style="fill:none;stroke-width:1.2;stroke-linecap:butt;stroke-linejoin:miter;stroke:rgb(0%,0%,0%);stroke-opacity:1;stroke-miterlimit:10;" d="M 201.84375 161.90625 L 214.617188 176.101562 "/>
<path style="fill:none;stroke-width:1.2;stroke-linecap:butt;stroke-linejoin:miter;stroke:rgb(0%,0%,0%);stroke-opacity:1;stroke-miterlimit:10;" d="M 214.617188 176.101562 L 223.957031 174.121094 "/>
<path style="fill:none;stroke-width:1.2;stroke-linecap:butt;stroke-linejoin:miter;stroke:rgb(0%,0%,100%);stroke-opacity:1;stroke-miterlimit:10;" d="M 223.957031 174.121094 L 233.296875 172.136719 "/>
<path style="fill:none;stroke-width:1.2;stroke-linecap:butt;stroke-linejoin:miter;stroke:rgb(0%,0%,100%);stroke-opacity:1;stroke-miterlimit:10;" d="M 233.296875 172.136719 L 239.683594 179.234375 "/>
<path style="fill:none;stroke-width:1.2;stroke-linecap:butt;stroke-linejoin:miter;stroke:rgb(0%,0%,0%);stroke-opacity:1;stroke-miterlimit:10;" d="M 239.683594 179.234375 L 246.070312 186.332031 "/>
<path style="fill:none;stroke-width:1.2;stroke-linecap:butt;stroke-linejoin:miter;stroke:rgb(0%,0%,100%);stroke-opacity:1;stroke-miterlimit:10;" d="M 233.296875 172.136719 L 236.25 163.058594 "/>
<path style="fill:none;stroke-width:1.2;stroke-linecap:butt;stroke-linejoin:miter;stroke:rgb(0%,0%,0%);stroke-opacity:1;stroke-miterlimit:10;" d="M 236.25 163.058594 L 239.203125 153.976562 "/>
<path style=" stroke:none;fill-rule:nonzero;fill:rgb(100%,100%,100%);fill-opacity:1;" d="M 230.296875 166.636719 L 237.296875 166.636719 L 237.296875 177.636719 L 230.296875 177.636719 Z M 230.296875 166.636719 "/>
<g style="fill:rgb(0%,0%,100%);fill-opacity:1;">
  <use xlink:href="#glyph0-1" x="230.296875" y="175.299805"/>
</g>
<path style="fill:none;stroke-width:1.2;stroke-linecap:butt;stroke-linejoin:miter;stroke:rgb(0%,0%,0%);stroke-opacity:1;stroke-miterlimit:10;" d="M 246.070312 186.332031 L 264.75 182.367188 "/>
<path style="fill:none;stroke-width:1.2;stroke-linecap:butt;stroke-linejoin:miter;stroke:rgb(0%,0%,0%);stroke-opacity:1;stroke-miterlimit:10;" d="M 239.203125 153.976562 L 257.882812 150.011719 "/>
<path style="fill:none;stroke-width:1.2;stroke-linecap:butt;stroke-linejoin:miter;stroke:rgb(0%,0%,100%);stroke-opacity:1;stroke-miterlimit:10;" d="M 110.707031 161.949219 L 101.367188 159.960938 "/>
<path style="fill:none;stroke-width:1.2;stroke-linecap:butt;stroke-linejoin:miter;stroke:rgb(0%,0%,0%);stroke-opacity:1;stroke-miterlimit:10;" d="M 101.367188 159.960938 L 92.027344 157.972656 "/>
<path style="fill:none;stroke-width:1.2;stroke-linecap:butt;stroke-linejoin:miter;stroke:rgb(0%,0%,100%);stroke-opacity:1;stroke-miterlimit:10;" d="M 109.773438 157.15625 L 102.300781 155.566406 "/>
<path style="fill:none;stroke-width:1.2;stroke-linecap:butt;stroke-linejoin:miter;stroke:rgb(0%,0%,0%);stroke-opacity:1;stroke-miterlimit:10;" d="M 102.300781 155.566406 L 94.832031 153.976562 "/>
<path style=" stroke:none;fill-rule:nonzero;fill:rgb(100%,100%,100%);fill-opacity:1;" d="M 107.707031 156.449219 L 114.707031 156.449219 L 114.707031 167.449219 L 107.707031 167.449219 Z M 107.707031 156.449219 "/>
<g style="fill:rgb(0%,0%,100%);fill-opacity:1;">
  <use xlink:href="#glyph0-1" x="107.707031" y="165.112305"/>
</g>
<path style="fill:none;stroke-width:1.2;stroke-linecap:butt;stroke-linejoin:miter;stroke:rgb(0%,0%,0%);stroke-opacity:1;stroke-miterlimit:10;" d="M 92.027344 157.972656 L 77.832031 170.746094 "/>
<path style="fill:none;stroke-width:1.2;stroke-linecap:butt;stroke-linejoin:miter;stroke:rgb(0%,0%,0%);stroke-opacity:1;stroke-miterlimit:10;" d="M 77.832031 170.746094 L 59.675781 164.839844 "/>
<path style="fill:none;stroke-width:1.2;stroke-linecap:butt;stroke-linejoin:miter;stroke:rgb(0%,0%,0%);stroke-opacity:1;stroke-miterlimit:10;" d="M 74.628906 174.425781 L 60.101562 169.703125 "/>
<path style="fill:none;stroke-width:1.2;stroke-linecap:butt;stroke-linejoin:miter;stroke:rgb(0%,0%,0%);stroke-opacity:1;stroke-miterlimit:10;" d="M 81.796875 189.425781 L 77.832031 170.746094 "/>
<path style="fill:none;stroke-width:1.2;stroke-linecap:butt;stroke-linejoin:miter;stroke:rgb(0%,0%,0%);stroke-opacity:1;stroke-miterlimit:10;" d="M 59.675781 164.839844 L 45.480469 177.613281 "/>
<path style="fill:none;stroke-width:1.2;stroke-linecap:butt;stroke-linejoin:miter;stroke:rgb(0%,0%,0%);stroke-opacity:1;stroke-miterlimit:10;" d="M 45.480469 177.613281 L 49.445312 196.292969 "/>
<path style="fill:none;stroke-width:1.2;stroke-linecap:butt;stroke-linejoin:miter;stroke:rgb(0%,0%,0%);stroke-opacity:1;stroke-miterlimit:10;" d="M 50.273438 178.546875 L 53.441406 193.492188 "/>
<path style="fill:none;stroke-width:1.2;stroke-linecap:butt;stroke-linejoin:miter;stroke:rgb(0%,0%,0%);stroke-opacity:1;stroke-miterlimit:10;" d="M 49.445312 196.292969 L 67.605469 202.199219 "/>
<path style="fill:none;stroke-width:1.2;stroke-linecap:butt;stroke-linejoin:miter;stroke:rgb(0%,0%,0%);stroke-opacity:1;stroke-miterlimit:10;" d="M 49.445312 196.292969 L 42.347656 202.679688 "/>
<path style="fill:none;stroke-width:1.2;stroke-linecap:butt;stroke-linejoin:miter;stroke:rgb(20%,80%,80%);stroke-opacity:1;stroke-miterlimit:10;" d="M 42.347656 202.679688 L 35.25 209.066406 "/>
<path style="fill:none;stroke-width:1.2;stroke-linecap:butt;stroke-linejoin:miter;stroke:rgb(0%,0%,0%);stroke-opacity:1;stroke-miterlimit:10;" d="M 67.605469 202.199219 L 81.796875 189.425781 "/>
<path style="fill:none;stroke-width:1.2;stroke-linecap:butt;stroke-linejoin:miter;stroke:rgb(0%,0%,0%);stroke-opacity:1;stroke-miterlimit:10;" d="M 66.019531 197.582031 L 77.375 187.363281 "/>
<path style=" stroke:none;fill-rule:nonzero;fill:rgb(100%,100%,100%);fill-opacity:1;" d="M 29.25 203.566406 L 35.25 203.566406 L 35.25 214.566406 L 29.25 214.566406 Z M 29.25 203.566406 "/>
<g style="fill:rgb(20%,80%,80%);fill-opacity:1;">
  <use xlink:href="#glyph0-3" x="29.25" y="212.229492"/>
</g>
</g>
</svg>

<svg xmlns="http://www.w3.org/2000/svg" xmlns:xlink="http://www.w3.org/1999/xlink" width="300pt" height="300pt" viewBox="0 0 300 300"><defs><symbol overflow="visible"><path d="M.453 1.594v-7.938h4.5v7.938zm.5-.5h3.5v-6.938h-3.5zm0 0"/></symbol><symbol overflow="visible" id="a"><path d="M.89-6.563H2.08l2.906 5.485v-5.484h.86V0H4.656L1.75-5.484V0H.89zm0 0"/></symbol><symbol overflow="visible" id="b"><path d="M.89-6.563h.876v2.688H5v-2.688h.89V0H5v-3.125H1.766V0H.89zm0 0"/></symbol><symbol overflow="visible" id="c"><path d="M.89-6.563h3.766v.75h-2.89v1.938h2.61v.734h-2.61V0H.89zm0 0"/></symbol></defs><g><path fill="#fff" d="M0 0h300v300H0z"/><path d="M40.43 129.418l16.535 9.55M56.965 138.97l16.54-9.544M73.504 129.426l8.266 4.777" stroke-width="1.2" stroke="#000" stroke-miterlimit="10" fill="none"/><path d="M81.77 134.203l8.27 4.777M90.04 138.98l8.722-3.882" stroke-width="1.2" stroke="#00f" stroke-miterlimit="10" fill="none"/><path d="M98.762 135.098l8.722-3.88M92.027 157.973l-.992-9.496" stroke-width="1.2" stroke="#000" stroke-miterlimit="10" fill="none"/><path d="M91.035 148.477l-.996-9.497" stroke-width="1.2" stroke="#00f" stroke-miterlimit="10" fill="none"/><path d="M87.04 133.48h7v11h-7zm0 0" fill="#fff"/><use xlink:href="#a" x="87.039" y="142.144" fill="#00f"/><path d="M107.484 131.22l12.774 14.194M112.102 129.633l10.218 11.355" stroke-width="1.2" stroke="#000" stroke-miterlimit="10" fill="none"/><path d="M113.39 113.06l-2.953 9.077" stroke-width="1.2" stroke="#00f" stroke-miterlimit="10" fill="none"/><path d="M110.438 122.137l-2.954 9.082M120.258 145.414l18.68-3.965M120.258 145.414l-4.778 8.266" stroke-width="1.2" stroke="#000" stroke-miterlimit="10" fill="none"/><path d="M115.48 153.68l-4.773 8.27" stroke-width="1.2" stroke="#00f" stroke-miterlimit="10" fill="none"/><path d="M138.938 141.45l2.953-9.083" stroke-width="1.2" stroke="#000" stroke-miterlimit="10" fill="none"/><path d="M141.89 132.367l2.954-9.078" stroke-width="1.2" stroke="#00f" stroke-miterlimit="10" fill="none"/><path d="M135.258 138.242l2.36-7.262" stroke-width="1.2" stroke="#000" stroke-miterlimit="10" fill="none"/><path d="M137.617 130.98l2.363-7.265" stroke-width="1.2" stroke="#00f" stroke-miterlimit="10" fill="none"/><path d="M138.938 141.45l6.386 7.097" stroke-width="1.2" stroke="#000" stroke-miterlimit="10" fill="none"/><path d="M145.324 148.547l6.387 7.098M144.844 123.29l-6.387-7.1" stroke-width="1.2" stroke="#00f" stroke-miterlimit="10" fill="none"/><path d="M138.457 116.19l-6.387-7.096" stroke-width="1.2" stroke="#000" stroke-miterlimit="10" fill="none"/><path d="M141.844 117.79h7v11h-7zm0 0" fill="#fff"/><use xlink:href="#a" x="141.844" y="126.452" fill="#00f"/><path d="M132.07 109.094l-9.34 1.984" stroke-width="1.2" stroke="#000" stroke-miterlimit="10" fill="none"/><path d="M122.73 111.078l-9.34 1.98" stroke-width="1.2" stroke="#00f" stroke-miterlimit="10" fill="none"/><path d="M131.137 113.887l-7.473 1.586" stroke-width="1.2" stroke="#000" stroke-miterlimit="10" fill="none"/><path d="M123.664 115.473l-7.473 1.586" stroke-width="1.2" stroke="#00f" stroke-miterlimit="10" fill="none"/><path d="M132.07 109.094l5.907-18.16" stroke-width="1.2" stroke="#000" stroke-miterlimit="10" fill="none"/><path d="M110.39 107.56h7v11h-7zm0 0" fill="#fff"/><use xlink:href="#a" x="110.391" y="116.222" fill="#00f"/><path d="M151.71 155.645l9.34-1.985" stroke-width="1.2" stroke="#00f" stroke-miterlimit="10" fill="none"/><path d="M161.05 153.66l9.34-1.98" stroke-width="1.2" stroke="#000" stroke-miterlimit="10" fill="none"/><path d="M144.71 150.145h14v11h-14zm0 0" fill="#fff"/><g fill="#00f"><use xlink:href="#a" x="144.711" y="158.808"/><use xlink:href="#b" x="151.688" y="158.808"/></g><path d="M170.39 151.68l12.774 14.19M183.164 165.87l18.68-3.964M201.844 161.906l12.773 14.196M214.617 176.102l9.34-1.98" stroke-width="1.2" stroke="#000" stroke-miterlimit="10" fill="none"/><path d="M223.957 174.12l9.34-1.983M233.297 172.137l6.387 7.097" stroke-width="1.2" stroke="#00f" stroke-miterlimit="10" fill="none"/><path d="M239.684 179.234l6.386 7.098" stroke-width="1.2" stroke="#000" stroke-miterlimit="10" fill="none"/><path d="M233.297 172.137l2.953-9.078" stroke-width="1.2" stroke="#00f" stroke-miterlimit="10" fill="none"/><path d="M236.25 163.06l2.953-9.083" stroke-width="1.2" stroke="#000" stroke-miterlimit="10" fill="none"/><path d="M230.297 166.637h7v11h-7zm0 0" fill="#fff"/><use xlink:href="#a" x="230.297" y="175.3" fill="#00f"/><path d="M246.07 186.332l18.68-3.965M239.203 153.977l18.68-3.965" stroke-width="1.2" stroke="#000" stroke-miterlimit="10" fill="none"/><path d="M110.707 161.95l-9.34-1.99" stroke-width="1.2" stroke="#00f" stroke-miterlimit="10" fill="none"/><path d="M101.367 159.96l-9.34-1.987" stroke-width="1.2" stroke="#000" stroke-miterlimit="10" fill="none"/><path d="M109.773 157.156l-7.472-1.59" stroke-width="1.2" stroke="#00f" stroke-miterlimit="10" fill="none"/><path d="M102.3 155.566l-7.468-1.59" stroke-width="1.2" stroke="#000" stroke-miterlimit="10" fill="none"/><path d="M107.707 156.45h7v11h-7zm0 0" fill="#fff"/><use xlink:href="#a" x="107.707" y="165.112" fill="#00f"/><path d="M92.027 157.973l-14.195 12.773M77.832 170.746l-18.156-5.906M74.63 174.426L60.1 169.703M81.797 189.426l-3.965-18.68M59.676 164.84L45.48 177.613M45.48 177.613l3.965 18.68M50.273 178.547l3.168 14.945M49.445 196.293l18.16 5.906M49.445 196.293l-7.097 6.387" stroke-width="1.2" stroke="#000" stroke-miterlimit="10" fill="none"/><path d="M42.348 202.68l-7.098 6.386" stroke-width="1.2" stroke="#3cc" stroke-miterlimit="10" fill="none"/><path d="M67.605 202.2l14.192-12.774M66.02 197.582l11.355-10.22" stroke-width="1.2" stroke="#000" stroke-miterlimit="10" fill="none"/><path d="M29.25 203.566h6v11h-6zm0 0" fill="#fff"/><use xlink:href="#c" x="29.25" y="212.229" fill="#3cc"/></g></svg>
